X:1
T:Title
%%score [ 1 2 3 ]
L:1/8
Q:1/4=176
M:4/4
K:C
V:1 treble nm="TIPLE (Soprano)"
V:2 treble-8 nm="CONTRA I (Tenor)"
V:3 bass nm="CONTRA II (Bass)"
V:1
 z8 | z8 |: z8 | E6 F2 | G4 E4 | D8 | D4 D2 D2 | A8 | G3 F G2 A2 | B6 B2 | d6 d2 | A6 A2 | =c6 BA | %13
w: |||||||||||||
w: |||down, be-|hold and|see,|what song is|this,|or how may this|be, three|parts in|one: Sing|all af- ter|
w: |||||||||||||
w: |||||||||||||
 G6 A2 | B2 B2 B2 AG | F2 D2 D4 | A6 GF | E6 F2 | G4 F2 E2 | D4 !fermata!D4 :| A6 GF | E6 F2 | %22
w: ||* * [down]|||||||
w: me with|hey down down a down|down a *|troll the _|ber- ry|drink and be|mer- ry.|||
w: |||||||Hey down a|down, be-|
w: |||||||||
 G4 E4 | D8 | D4 D2 D2 | A8 | G3 F G2 A2 | B6 B2 | d6 d2 | A6 A2 | =c6 BA | G6 A2 | B2 B2 B2 AG | %33
w: |||||||||||
w: |||||||||||
w: hold and|see,|what song is|this,|or how may this|be, three|parts in|one: Sing|all af- ter|me with|hey down down a down|
w: |||||||||||
 F2 D2 D4 | A6 GF | E6 F2 | G4 F2 E2 | D4 !fermata!D4 | z8 | z8 | z8 | z8 | z8 | z8 | z8 | z8 | %46
w: |||||||||||||
w: |||||||||||||
w: down a down|troll the *|ber- ry|||||||||||
w: |||drink and be|mer- ry.|||||||||
V:2
 z8 | d6 cB |: A6 B2 | c4 A4 | G8 | G4 G2 G2 | d8 | c3 B c2 d2 | e6 e2 | g6 g2 | d6 d2 | =f6 ed | %12
w: ||||||||||||
w: |Hey down a|down, be-|hold and|see,|what song is|this,|or how may this|be, three|parts in|one: Sing|all af- ter|
w: ||||||||||||
w: ||||||||||||
 c6 d2 | e2 e2 e2 dc | B2 G2 G4 | d6 cB | A6 B2 | c4 B2 A2 | G4 !fermata!G4 | d6 cB :| A6 B2 | %21
w: ||* * [down]|||||||
w: me with|hey down down a down|down a *|troll the _|ber- ry|drink and be|mer- ry.|Hey down a||
w: ||||||||down, be-|
w: |||||||||
 c4 A4 | G8 | G4 G2 G2 | d8 | c3 B c2 d2 | e6 e2 | g6 g2 | d6 d2 | =f6 ed | c6 d2 | e2 e2 e2 dc | %32
w: |||||||||||
w: |||||||||||
w: hold and|see,|what song is|this,|or how may this|be, three|parts in|one: Sing|all af- ter|me with|hey down down a down|
w: |||||||||||
 B2 G2 G4 | d6 cB | A6 B2 | c4 B2 A2 | G4 !fermata!G4 | z8 | z8 | z8 | z8 | z8 | z8 | z8 | z8 | %45
w: |||||||||||||
w: |||||||||||||
w: down a down|troll the *|ber- ry|drink and be||||||||||
w: ||||mer- ry.|||||||||
 z8 | %46
w: |
w: |
w: |
w: |
V:3
 G,6 F,E, | D,6 E,2 |: F,4 D,4 | C,8 | C,4 C,2 C,2 | G,8 | F,3 E, F,2 G,2 | A,6 A,2 | C6 C2 | %9
w: |||||||||
w: Hey down a|down, be-|hold and|see,|what song is|this,|or how may this|be, three|parts in|
w: |||||||||
 G,6 G,2 | _B,6 A,G, | F,6 G,2 | A,2 A,2 A,2 G,F, | E,2 C,2 C,4 | G,6 F,E, | D,6 E,2 | %16
w: ||||* * [down]|||
w: one: Sing|all af- ter|me with|hey down down a down|down a *|troll the _|ber- ry|
w: |||||||
 F,4 E,2 D,2 | C,4 !fermata!C,4 | G,6 F,E, | D,6 E,2 :| F,4 D,4 | C,8 | C,4 C,2 C,2 | G,8 | %24
w: ||||||||
w: drink and be|mer- ry.|Hey down a|down, be-|||||
w: ||||hold and|see,|what song is|this,|
 F,3 E, F,2 G,2 | A,6 A,2 | C6 C2 | G,6 G,2 | _B,6 A,G, | F,6 G,2 | A,2 A,2 A,2 G,F, | %31
w: |||||||
w: |||||||
w: or how may this|be, three|parts in|one: Sing|all af- ter|me with|hey down down a down|
 E,2 C,2 C,4 | G,6 F,E, | D,6 E,2 | F,4 E,2 D,2 | C,4 !fermata!C,4 | z8 | z8 | z8 | z8 | z8 | z8 | %42
w: |||||||||||
w: |||||||||||
w: down a down|troll the *|ber- ry|drink and be|mer- ry.|||||||
 z8 | z8 | z8 | z8 | %46
w: ||||
w: ||||
w: ||||

